libs/icons/src/svg/move-left.svg

<svg width="16" height="16" viewBox="0 0 16 16" fill="none" xmlns="http://www.w3.org/2000/svg">
<g clip-path="url(#clip0_3_3764)">
<path fill-rule="evenodd" clip-rule="evenodd" d="M0.666626 8.00001C0.666626 7.63182 0.965103 7.33334 1.33329 7.33334H11.3333C11.7015 7.33334 12 7.63182 12 8.00001C12 8.3682 11.7015 8.66668 11.3333 8.66668H1.33329C0.965103 8.66668 0.666626 8.3682 0.666626 8.00001Z" fill="#202327"/>
<path fill-rule="evenodd" clip-rule="evenodd" d="M5.8047 3.52861C6.06505 3.78896 6.06505 4.21107 5.8047 4.47141L2.2761 8.00001L5.8047 11.5286C6.06505 11.789 6.06505 12.2111 5.8047 12.4714C5.54435 12.7318 5.12224 12.7318 4.86189 12.4714L0.861888 8.47141C0.601539 8.21107 0.601539 7.78896 0.861888 7.52861L4.86189 3.52861C5.12224 3.26826 5.54435 3.26826 5.8047 3.52861Z" fill="#202327"/>
<path fill-rule="evenodd" clip-rule="evenodd" d="M14.6667 0.666672C15.0349 0.666672 15.3333 0.965149 15.3333 1.33334V14.6667C15.3333 15.0349 15.0349 15.3333 14.6667 15.3333C14.2985 15.3333 14 15.0349 14 14.6667V1.33334C14 0.965149 14.2985 0.666672 14.6667 0.666672Z" fill="#202327"/>
</g>
<defs>
<clipPath id="clip0_3_3764">
<rect width="16" height="16" fill="white"/>
</clipPath>
</defs>
</svg>

<svg xmlns="http://www.w3.org/2000/svg" viewBox="0 0 16 16" class="sageicon"><path fill-rule="evenodd" d="M.667 8c0-.368.298-.667.666-.667h10a.667.667 0 0 1 0 1.334h-10A.667.667 0 0 1 .667 8Z"/><path fill-rule="evenodd" d="M5.805 3.529c.26.26.26.682 0 .942L2.276 8l3.529 3.529a.667.667 0 1 1-.943.942l-4-4a.667.667 0 0 1 0-.942l4-4c.26-.26.682-.26.943 0ZM14.667.667c.368 0 .666.298.666.666v13.334a.667.667 0 1 1-1.333 0V1.333c0-.368.299-.666.667-.666Z"/></svg>
